X:1
T:Title
%%score { ( 1 3 ) | ( 2 4 ) }
L:1/8
M:6/8
K:Bb
V:1 treble nm="Grand Piano"
V:3 treble 
V:2 bass 
V:4 bass 
V:1
 z3 z2[Q:1/4=84] [DF]/[DF]/ | [DF]<[DF][DF] [DF]2 [DF]/[DF]/ | [EG]2 [EG] [DF]2 [DF] | %3
 BBB [=EG][FA][EB] |[M:5/8] c-c- c3 |[M:1/8] F/F/ |[M:3/4] [DF][DF] [DF][DF] [DF][DF] | %7
 G2 G F2 [DB] | [FA][FG] [FA] [=EB]2 E |[M:5/8] F-F- F3 |[M:1/8] F/F/ |[M:3/4] A<A B c2 F/F/ | %12
 [DB]2 [Fc] [Fd]2 [B,_AB] | [B,GB][B,GB] [B,GB] [B,FA]2 [B,EG] |[M:5/8] [DF]-[DF]- [DF]3 | %15
[M:1/8] [DF]/[DF]/ |[M:3/4] d2 dc cc | B2 G B2 G | z2 z .F3 |[M:5/8] [B,DF]-[B,DF]- [B,DF]3 | %20
[M:1/8] F/B/ |[M:3/4] A<A A A2 G/A/ | [DG]<[DF] [DF] [DF]2 [CF]/[DF]/ | BB B[=EG] [FA][EB] | %24
[M:13/16] dccc-<ce3/2 |[M:3/4] d<d d c2 c/c/ | B2 G B2 G | %27
 z2 z .F3[Q:1/4=83][Q:1/4=82][Q:1/4=80][Q:1/4=79][Q:1/4=78][Q:1/4=77][Q:1/4=75][Q:1/4=74][Q:1/4=73][Q:1/4=72][Q:1/4=70][Q:1/4=69][Q:1/4=68][Q:1/4=67][Q:1/4=65][Q:1/4=64] | %28
[M:5/8] [B,DF]-[B,DF]- [B,DF]3 |] %29
V:2
 z3 z2 [B,,B,]/[B,,B,]/ | [B,,B,]<[B,,B,][B,,B,] [B,,B,]2 [B,,B,]/[B,,B,]/ | %2
 [E,B,]2 [E,B,] [B,,B,]2 [B,,B,] | [G,B,D][G,B,D][G,B,D] [C,B,][C,A,][C,G,] | %4
[M:5/8] [F,A,E]-[F,A,E]- [F,A,E]3 |[M:1/8] [F,A,E]/[F,A,E]/ | %6
[M:3/4] [B,,B,][B,,B,] [B,,B,][B,,B,] [B,,B,][B,,B,] | [E,B,E]2 [E,B,E] [E,B,D]2 [B,,F,] | %8
 [C,A,][C,B,] [C,C] [C,G,]2 [C,B,C] |[M:5/8] [F,A,C]-[F,A,C]- [F,A,C]3 |[M:1/8] [F,A,E]/[F,A,E]/ | %11
[M:3/4] [F,CE]<[F,CE] [F,B,D] [F,A,E]2 [F,A,E]/[F,A,E]/ | [B,,B,]2 [F,A,] B,2 B,, | %13
 E,E, E, E,2 E, |[M:5/8] [B,,B,]-[B,,B,]- [B,,B,]3 |[M:1/8] [B,,B,]/[B,,B,]/ | %16
[M:3/4][K:treble] [B,F]2 [B,F][A,CF] [A,CF][A,CF] | [G,DG]2[K:bass] [G,B,D] [E,G,E]2 [=E,B,_D] | %18
 [F,B,D][F,B,D] [F,B,D][A,C] B,F, |[M:5/8] B,,-B,,- B,,3 |[M:1/8] z | %21
[M:3/4] [F,CE]<[F,CE] [F,CE] .[F,CE]3 | [B,,B,]<[B,,B,] [B,,B,] [B,,B,]2 [B,,B,]/[B,,B,]/ | %23
 [G,B,D][G,B,D] [G,B,D][C,B,] [C,A,][C,G,] | %24
[M:13/16][K:treble] [F,B,F][F,A,F][F,A,F][F,A,F]-<[F,A,F][F,A,F]3/2 | %25
[M:3/4] [B,F]<[B,F] [B,F] [A,CF]2 [A,CF]/[A,CF]/ | [G,DG]2[K:bass] [G,B,D] [E,G,E]2 [=E,B,_D] | %27
 [F,B,D][F,B,D] [F,B,D][A,C] B,F, |[M:5/8] B,,-B,,- B,,3 |] %29
V:3
 x6 | x6 | x6 | x6 |[M:5/8] x5 |[M:1/8] x |[M:3/4] x6 | x6 | x6 |[M:5/8] x5 |[M:1/8] x | %11
[M:3/4] x6 | x6 | x6 |[M:5/8] x5 |[M:1/8] x |[M:3/4] x6 | x6 | FF .F2 D[CEF] |[M:5/8] x5 | %20
[M:1/8] x |[M:3/4] x6 | x6 | x6 |[M:13/16] x13/2 |[M:3/4] x6 | x6 | FF .F2 D[CEF] |[M:5/8] x5 |] %29
V:4
 x6 | x6 | x6 | x6 |[M:5/8] x5 |[M:1/8] x |[M:3/4] x6 | x6 | x6 |[M:5/8] x5 |[M:1/8] x | %11
[M:3/4] x6 | x6 | x6 |[M:5/8] x5 |[M:1/8] x |[M:3/4][K:treble] x6 | x2[K:bass] x4 | z2 z .F,3 | %19
[M:5/8] x5 |[M:1/8] x |[M:3/4] x6 | x6 | x6 |[M:13/16][K:treble] x13/2 |[M:3/4] x6 | %26
 x2[K:bass] x4 | z2 z .F,3 |[M:5/8] x5 |] %29

